usr/share/icons/biglinux-icons-material-dark/symbolic/status/audio-volume-high-symbolic.svg

<svg width="16" height="16" version="1.1" xmlns="http://www.w3.org/2000/svg">
 <g fill="#dedede" stroke-linecap="round" stroke-linejoin="round" stroke-width="2.001" style="paint-order:stroke fill markers" aria-label="">
  <path d="m12.363 0.92969a0.5 0.5 0 0 0 0 0.70703c1.688 1.6877 2.6364 3.9763 2.6367 6.3633-0.0097 2.3829-0.96468 4.6633-2.6543 6.3438a0.5 0.5 0 0 0-2e-3 0.70898 0.5 0.5 0 0 0 0.70898 2e-3c1.8776-1.8674 2.9371-4.4047 2.9473-7.0528a0.50005 0.50005 0 0 0 0-0.0019531c-4.01e-4 -2.6518-1.0544-5.1954-2.9297-7.0703a0.5 0.5 0 0 0-0.70703 0z" color="#000000" style="-inkscape-stroke:none;paint-order:normal"/>
  <path d="m10.242 3.0508a0.5 0.5 0 0 0 0 0.70703c1.1254 1.1252 1.7576 2.6508 1.7578 4.2422-0.0065 1.5885-0.64326 3.1082-1.7695 4.2285a0.5 0.5 0 0 0-2e-3 0.70898 0.5 0.5 0 0 0 0.70898 2e-3c1.3143-1.3073 2.0556-3.0839 2.0625-4.9375a0.50005 0.50005 0 0 0 0-0.0019531c-2.8e-4 -1.8562-0.7381-3.6368-2.0508-4.9492a0.5 0.5 0 0 0-0.70703 0z" color="#000000" style="-inkscape-stroke:none;paint-order:normal"/>
  <path d="m8.4746 5.0254a0.5 0.5 0 0 0-0.35352 0.14648 0.5 0.5 0 0 0 0 0.70703c0.56277 0.56265 0.87879 1.3253 0.87891 2.1211-0.0032746 0.7941-0.32182 1.5551-0.88477 2.1152a0.5 0.5 0 0 0 0 0.70703 0.5 0.5 0 0 0 0.70703 0c0.75086-0.74715 1.174-1.7611 1.1777-2.8203a0.50005 0.50005 0 0 0 0-0.0019531c-1.602e-4 -1.0606-0.42183-2.0782-1.1719-2.8281a0.5 0.5 0 0 0-0.35352-0.14648z" color="#000000" style="-inkscape-stroke:none;paint-order:normal"/>
  <path d="m6.0977 2.7129a1.0001 1.0001 0 0 0-0.80469 0.28906l-1.9961 1.998h-0.29688-0.0019531-0.99805c-1.0907 0-2 0.9093-2 2v2c0 1.0907 0.9093 2 2 2h0.99805 0.0019531 0.29688l1.9961 1.998a1.0001 1.0001 0 0 0 1.707-0.70703v-8.582a1.0001 1.0001 0 0 0-0.61719-0.92383 1.0001 1.0001 0 0 0-0.28516-0.072266zm-0.097656 0.99609v8.582l-2.2891-2.291h-0.71094-0.0019531-0.99805c-0.554 0-1-0.446-1-1v-2c0-0.554 0.446-1 1-1h0.99805 0.0019531 0.71094l2.2891-2.291z" color="#000000" style="-inkscape-stroke:none"/>
 </g>
</svg>

<svg xmlns="http://www.w3.org/2000/svg" width="16" height="16">
<g fill="#363636" stroke-linecap="round" stroke-linejoin="round" stroke-width="2.001" aria-label="" color="#000" style="paint-order:stroke fill markers">
<path d="M12.363.93a.5.5 0 0 0 0 .707A9 9 0 0 1 15 8a9 9 0 0 1-2.655 6.344.5.5 0 0 0-.002.709.5.5 0 0 0 .71.002A10 10 0 0 0 16 8.002V8A10 10 0 0 0 13.07.93a.5.5 0 0 0-.707 0" style="-inkscape-stroke:none;paint-order:normal"/>
<path d="M10.242 3.05a.5.5 0 0 0 0 .708A6 6 0 0 1 12 8a6 6 0 0 1-1.77 4.229.5.5 0 0 0-.002.709.5.5 0 0 0 .71.002A7 7 0 0 0 13 8.002V8a7 7 0 0 0-2.051-4.95.5.5 0 0 0-.707 0M8.475 5.025a.5.5 0 0 0-.354.147.5.5 0 0 0 0 .707A3 3 0 0 1 9 8a3 3 0 0 1-.885 2.115.5.5 0 0 0 0 .707.5.5 0 0 0 .707 0A4 4 0 0 0 10 8.002V8a4 4 0 0 0-1.172-2.828.5.5 0 0 0-.353-.147" style="-inkscape-stroke:none;paint-order:normal"/>
<path d="M6.098 2.713a1 1 0 0 0-.805.289L3.297 5H2C.91 5 0 5.91 0 7v2c0 1.09.91 2 2 2h1.297l1.996 1.998A1 1 0 0 0 7 12.291V3.709a1 1 0 0 0-.617-.924 1 1 0 0 0-.285-.072M6 3.709v8.582L3.71 10H2c-.554 0-1-.446-1-1V7c0-.554.446-1 1-1h1.71z" style="-inkscape-stroke:none"/>
</g>
</svg>
